build/img/icons/delivery.svg

<svg width="25" height="25" viewBox="0 0 25 25" fill="none" xmlns="http://www.w3.org/2000/svg">
<g clip-path="url(#clip0)">
<path d="M22.0928 6.70439L14.2357 2.38297C14.1197 2.31914 13.9894 2.28568 13.857 2.28568C13.7245 2.28568 13.5943 2.31914 13.4782 2.38297L5.62111 6.70439C5.49792 6.77222 5.39519 6.87187 5.32365 6.99293C5.2521 7.114 5.21436 7.25205 5.21436 7.39268C5.21436 7.53331 5.2521 7.67136 5.32365 7.79242C5.39519 7.91349 5.49792 8.01314 5.62111 8.08096L13.0712 12.1785V20.6005L10.6858 19.2884L9.92839 20.6642L13.4782 22.6167C13.5942 22.6806 13.7245 22.7142 13.857 22.7142C13.9894 22.7142 14.1197 22.6806 14.2357 22.6167L22.0928 18.2952C22.216 18.2274 22.3188 18.1278 22.3904 18.0067C22.462 17.8857 22.4998 17.7476 22.4998 17.607V7.39268C22.4998 7.25203 22.462 7.11396 22.3904 6.99289C22.3188 6.87182 22.216 6.77219 22.0928 6.70439ZM13.857 3.96854L20.0837 7.39268L13.857 10.8168L7.63018 7.39268L13.857 3.96854ZM20.9284 17.1426L14.6427 20.5997V12.1777L20.9284 8.72053V17.1426Z" fill="white"/>
<path d="M6.78571 12.4998H0.5V10.9284H6.78571V12.4998Z" fill="white"/>
<path d="M9.35724 18.7854H3.07153V17.2139H9.35724V18.7854Z" fill="white"/>
<path d="M10.9285 15.643H4.64282V14.0716H10.9285V15.643Z" fill="white"/>
</g>
<defs>
<clipPath id="clip0">
<rect width="24" height="24" fill="white" transform="translate(0.5 0.5)"/>
</clipPath>
</defs>
</svg>

<svg width="25" height="25" fill="none" xmlns="http://www.w3.org/2000/svg">
    <g clip-path="url(#a)" fill="#fff">
        <path d="m22.093 6.704-7.857-4.321a.786.786 0 0 0-.758 0L5.621 6.704a.786.786 0 0 0 0 1.377l7.45 4.098V20.6l-2.385-1.312-.758 1.376 3.55 1.953a.785.785 0 0 0 .758 0l7.857-4.322a.786.786 0 0 0 .407-.688V7.393a.785.785 0 0 0-.407-.689zM13.857 3.97l6.227 3.424-6.227 3.424L7.63 7.393l6.227-3.424zm7.071 13.174L14.643 20.6v-8.422l6.285-3.457v8.422z"/>
        <path d="M6.786 12.5H.5v-1.572h6.286V12.5zM9.357 18.785H3.072v-1.571h6.285v1.571zM10.928 15.643H4.643v-1.571h6.285v1.571z"/>
    </g>
    <defs>
        <clipPath id="a">
            <path fill="#fff" transform="translate(.5 .5)" d="M0 0h24v24H0z"/>
        </clipPath>
    </defs>
</svg>
